packages/web-icons/svgs/logo_ridibooks_2.svg

<svg viewBox="0 0 195 48" xmlns="http://www.w3.org/2000/svg" class="ridi_icon"><path d="M14.2 10.8c0 1.4-.3 2.3-.8 2.9-.5.6-1.5.9-2.8.9H8V6.9h2.5c1.4 0 2.3.3 2.8.9.6.6.9 1.6.9 3zm7.5 0c0-3.8-.9-6.4-2.6-7.9C17.4 1.4 14.5.6 10.6.6h-9C.9.6.7.9.7 1.5v26.8c0 .7.3.9.9.9h5.5c.7.1.9-.2.9-.9v-7.8h2l.1.2 3.7 7.7c.3.6.8.9 1.5.9H21c.5 0 .5-.2.6-.2.1-.2 0-.5-.1-.8L17 19.8l-.2-.3.3-.1.2-.1c2.9-1.5 4.4-4.3 4.4-8.5zm11.8 17.5V1.6c0-.7-.3-.9-.9-.9H27c-.7 0-.9.3-.9.9v26.8c0 .7.3.9.9.9h5.6c.6 0 .9-.3.9-1zM52.1 15c0 3.1-.3 5.1-1 6.2-.7 1.2-2 1.7-3.8 1.7h-1.6V7.1h1.4c1.8 0 3.1.6 3.8 1.7.8 1.1 1.2 3.1 1.2 6.2zm4.6 11.1c1.9-2.1 2.9-5.9 2.9-11.1 0-5.2-1-9-2.9-11.1C54.8 1.8 51.6.7 47.4.7h-8.2c-.7 0-.9.3-.9.9v26.8c0 .7.3.9.9.9h8.2c4.3 0 7.4-1.1 9.3-3.2zm14.7 2.2V1.6c0-.7-.3-.9-.9-.9h-5.6c-.7 0-.9.3-.9.9v26.8c0 .7.3.9.9.9h5.6c.6 0 .9-.3.9-1zM90 20.4c0 1.1-.2 1.9-.7 2.4-.5.5-1.3.8-2.5.8h-3.3v-6.3h3.3c1.1 0 2 .3 2.5.8.4.4.7 1.2.7 2.3zm-.7-11.3c0 1-.2 1.7-.7 2.2-.5.5-1.3.7-2.3.7h-2.9V6.3h2.9c1.1 0 1.8.2 2.3.7.5.4.7 1.2.7 2.1zm3.6 5.1l-.8-.3.8-.3.4-.2c2.2-1 3.3-2.9 3.3-5.7 0-2.7-.8-4.6-2.3-5.5-1.6-1-4.2-1.6-7.7-1.6H77c-.7 0-.9.3-.9.9v26.8c0 .7.3.9.9.9h10.2c6.8 0 10.1-2.7 10.1-8.4 0-1.8-.4-3.2-1.1-4.3-.7-1.1-1.7-1.8-2.9-2.3h-.4zm22.4.8c0 3.2-.3 5.4-.8 6.5-.6 1.3-1.6 1.9-2.9 1.9-1.4 0-2.4-.7-2.9-1.9-.5-1.1-.8-3.3-.8-6.5s.3-5.4.8-6.5c.5-1.3 1.6-1.9 2.9-1.9 1.4 0 2.4.7 2.9 1.9.6 1.1.8 3.3.8 6.5zm6.8 7.1c.5-1.9.8-4.4.8-7.2s-.3-5.2-.8-7.2c-.5-1.9-1.2-3.4-2.2-4.5-1-1.1-2.1-1.9-3.4-2.4-1.3-.5-3-.7-4.8-.7-1.9 0-3.5.2-4.8.7-1.3.5-2.5 1.3-3.4 2.4-1 1.1-1.7 2.6-2.2 4.5-.5 1.9-.8 4.4-.8 7.2s.3 5.2.8 7.2c.5 1.9 1.2 3.4 2.2 4.5 1 1.1 2.1 1.9 3.4 2.4 1.3.5 3 .7 4.8.7 1.9 0 3.5-.2 4.8-.7 1.3-.5 2.5-1.3 3.4-2.4.9-1 1.7-2.6 2.2-4.5zm18.5-7.1c0 3.2-.3 5.4-.8 6.5-.6 1.3-1.6 1.9-2.9 1.9-1.4 0-2.4-.7-2.9-1.9-.5-1.1-.8-3.3-.8-6.5s.3-5.4.8-6.5c.5-1.3 1.6-1.9 2.9-1.9 1.4 0 2.4.7 2.9 1.9.5 1.1.8 3.3.8 6.5zm6.7 7.1c.5-1.9.8-4.4.8-7.2s-.3-5.2-.8-7.2c-.5-1.9-1.2-3.4-2.2-4.5-1-1.1-2.1-1.9-3.4-2.4-1.3-.5-3-.7-4.8-.7-1.9 0-3.5.2-4.8.7-1.3.5-2.5 1.3-3.4 2.4-1 1.1-1.7 2.6-2.2 4.5-.5 1.9-.8 4.4-.8 7.2s.3 5.2.8 7.2c.5 1.9 1.2 3.4 2.2 4.5 1 1.1 2.1 1.9 3.4 2.4 1.3.5 3 .7 4.8.7 1.9 0 3.5-.2 4.8-.7 1.3-.5 2.5-1.3 3.4-2.4 1-1 1.7-2.6 2.2-4.5zm26.3 6.9c.1-.1.1-.4-.1-.8l-7.2-14.6-.1-.2.1-.2 6.8-11.7c.2-.4.2-.6.1-.8 0-.1-.1-.2-.5-.2h-5.9c-.7 0-1.1.3-1.5 1l-5.1 9.1-.6 1.1V1.6c0-.7-.3-.9-.9-.9h-5.6c-.7 0-.9.3-.9.9v26.8c0 .7.3.9.9.9h5.6c.7 0 .9-.3.9-.9v-13l.6 1.3 5.5 11.5c.3.7.8 1 1.5 1h5.9c.4.1.5-.1.5-.2zm21.2-7.6c0-1.2-.2-2.3-.5-3.2-.3-.9-.8-1.7-1.5-2.3-.7-.7-1.4-1.3-2.1-1.7-.7-.4-1.7-1-2.9-1.7-2.7-1.3-3.9-2.6-3.9-3.9 0-1 .5-1.5.9-1.7.5-.3 1.3-.4 2.3-.4 1.6 0 3.1.2 4.5.6.2 0 .4.1.5.1.3 0 .6-.1.7-.7l.7-3.9c.1-.4 0-.9-.8-1.2-1.8-.7-4-1.1-6.7-1.1-3.4 0-5.9.6-7.4 1.9-1.5 1.2-2.3 3.3-2.3 6.1 0 1.3.2 2.5.5 3.6.4 1 .9 1.9 1.6 2.6.7.7 1.4 1.3 2.1 1.8.7.5 1.6.9 2.6 1.4 1.5.8 2.5 1.4 3.1 1.9.6.5.9 1.1.9 1.8 0 1.5-1.4 2.3-4.3 2.3-1.7 0-3.4-.3-4.9-.9-.2-.1-.4-.1-.6-.1-.2 0-.5 0-.6.7l-.7 4c-.1.5 0 .7 0 .7.1.1.3.3.8.5 2.2.9 4.8 1.3 7.9 1.3 2.9 0 5.3-.7 7.2-2.1 2-1.5 2.9-3.6 2.9-6.4zm.2 19.4v-3.1c0-.7-.2-.9-.9-.9h-75.7c-3.6 0-7.5.1-11.9.9-3.5.7-6.5 2.1-8.8 4.2l-.2.1-.2-.2c-2.3-2.1-5.3-3.5-8.8-4.2-4.4-.8-11.8-.9-11.9-.9H.9c-.6 0-.9.3-.9.9v3.1c0 .7.2.9.9.9h76.2c1.7 0 7.4.1 10.5.8 5 1.2 7.6 4.7 8.1 5.5h3.6c.5-.8 3.1-4.3 8.1-5.5 3-.7 8.7-.8 11-.8h75.7c.6.1.9-.2.9-.8z"/></svg>

<?xml version="1.0" encoding="UTF-8"?>
<svg width="195px" height="48px" viewBox="0 0 195 48" version="1.1" xmlns="http://www.w3.org/2000/svg">
  <!-- Generator: Sketch 41.2 (35397) - http://www.bohemiancoding.com/sketch -->
  <title>logo_ridibooks_1</title>
  <desc>Created with Sketch.</desc>
  <defs></defs>
  <g id="Page-1" stroke="none" stroke-width="1" fill="none" fill-rule="evenodd">
    <g id="logo_ridibooks_1" fill="#1F8EE6">
      <g id="Layer_2">
        <path d="M14.2,10.8 C14.2,12.2 13.9,13.1 13.4,13.7 C12.9,14.3 11.9,14.6 10.6,14.6 L8.3,14.6 L8,14.6 L8,14.3 L8,7.2 L8,6.9 L8.3,6.9 L10.5,6.9 C11.9,6.9 12.8,7.2 13.3,7.8 C13.9,8.4 14.2,9.4 14.2,10.8 L14.2,10.8 Z M21.7,10.8 C21.7,7 20.8,4.4 19.1,2.9 C17.4,1.4 14.5,0.6 10.6,0.6 L1.6,0.6 C0.9,0.6 0.7,0.9 0.7,1.5 L0.7,28.3 C0.7,29 1,29.2 1.6,29.2 L7.1,29.2 C7.8,29.3 8,29 8,28.3 L8,20.8 L8,20.5 L8.3,20.5 L9.8,20.5 L10,20.5 L10.1,20.7 L13.8,28.4 C14.1,29 14.6,29.3 15.3,29.3 L21,29.3 C21.5,29.3 21.5,29.1 21.6,29.1 C21.7,28.9 21.6,28.6 21.5,28.3 L17,19.8 L16.8,19.5 L17.1,19.4 L17.3,19.3 C20.2,17.8 21.7,15 21.7,10.8 L21.7,10.8 Z M33.5,28.3 L33.5,1.6 C33.5,0.9 33.2,0.7 32.6,0.7 L27,0.7 C26.3,0.7 26.1,1 26.1,1.6 L26.1,28.4 C26.1,29.1 26.4,29.3 27,29.3 L32.6,29.3 C33.2,29.3 33.5,29 33.5,28.3 L33.5,28.3 Z M52.1,15 C52.1,18.1 51.8,20.1 51.1,21.2 C50.4,22.4 49.1,22.9 47.3,22.9 L46,22.9 L45.7,22.9 L45.7,22.6 L45.7,7.4 L45.7,7.1 L46,7.1 L47.1,7.1 C48.9,7.1 50.2,7.7 50.9,8.8 C51.7,9.9 52.1,11.9 52.1,15 L52.1,15 Z M56.7,26.1 C58.6,24 59.6,20.2 59.6,15 C59.6,9.8 58.6,6 56.7,3.9 C54.8,1.8 51.6,0.7 47.4,0.7 L39.2,0.7 C38.5,0.7 38.3,1 38.3,1.6 L38.3,28.4 C38.3,29.1 38.6,29.3 39.2,29.3 L47.4,29.3 C51.7,29.3 54.8,28.2 56.7,26.1 L56.7,26.1 Z M71.4,28.3 L71.4,1.6 C71.4,0.9 71.1,0.7 70.5,0.7 L64.9,0.7 C64.2,0.7 64,1 64,1.6 L64,28.4 C64,29.1 64.3,29.3 64.9,29.3 L70.5,29.3 C71.1,29.3 71.4,29 71.4,28.3 L71.4,28.3 Z M90,20.4 C90,21.5 89.8,22.3 89.3,22.8 C88.8,23.3 88,23.6 86.8,23.6 L83.8,23.6 L83.5,23.6 L83.5,23.3 L83.5,17.6 L83.5,17.3 L83.8,17.3 L86.8,17.3 C87.9,17.3 88.8,17.6 89.3,18.1 C89.7,18.5 90,19.3 90,20.4 L90,20.4 Z M89.3,9.1 C89.3,10.1 89.1,10.8 88.6,11.3 C88.1,11.8 87.3,12 86.3,12 L83.7,12 L83.4,12 L83.4,11.7 L83.4,6.7 L83.4,6.3 L83.7,6.3 L86.3,6.3 C87.4,6.3 88.1,6.5 88.6,7 C89.1,7.4 89.3,8.2 89.3,9.1 L89.3,9.1 Z M92.9,14.2 L92.1,13.9 L92.9,13.6 L93.3,13.4 C95.5,12.4 96.6,10.5 96.6,7.7 C96.6,5 95.8,3.1 94.3,2.2 C92.7,1.2 90.1,0.6 86.6,0.6 L77,0.6 C76.3,0.6 76.1,0.9 76.1,1.5 L76.1,28.3 C76.1,29 76.4,29.2 77,29.2 L87.2,29.2 C94,29.2 97.3,26.5 97.3,20.8 C97.3,19 96.9,17.6 96.2,16.5 C95.5,15.4 94.5,14.7 93.3,14.2 L92.9,14.2 Z M115.3,15 C115.3,18.2 115,20.4 114.5,21.5 C113.9,22.8 112.9,23.4 111.6,23.4 C110.2,23.4 109.2,22.7 108.7,21.5 C108.2,20.4 107.9,18.2 107.9,15 C107.9,11.8 108.2,9.6 108.7,8.5 C109.2,7.2 110.3,6.6 111.6,6.6 C113,6.6 114,7.3 114.5,8.5 C115.1,9.6 115.3,11.8 115.3,15 L115.3,15 Z M122.1,22.1 C122.6,20.2 122.9,17.7 122.9,14.9 C122.9,12.1 122.6,9.7 122.1,7.7 C121.6,5.8 120.9,4.3 119.9,3.2 C118.9,2.1 117.8,1.3 116.5,0.8 C115.2,0.3 113.5,0.1 111.7,0.1 C109.8,0.1 108.2,0.3 106.9,0.8 C105.6,1.3 104.4,2.1 103.5,3.2 C102.5,4.3 101.8,5.8 101.3,7.7 C100.8,9.6 100.5,12.1 100.5,14.9 C100.5,17.7 100.8,20.1 101.3,22.1 C101.8,24 102.5,25.5 103.5,26.6 C104.5,27.7 105.6,28.5 106.9,29 C108.2,29.5 109.9,29.7 111.7,29.7 C113.6,29.7 115.2,29.5 116.5,29 C117.8,28.5 119,27.7 119.9,26.6 C120.8,25.6 121.6,24 122.1,22.1 L122.1,22.1 Z M140.6,15 C140.6,18.2 140.3,20.4 139.8,21.5 C139.2,22.8 138.2,23.4 136.9,23.4 C135.5,23.4 134.5,22.7 134,21.5 C133.5,20.4 133.2,18.2 133.2,15 C133.2,11.8 133.5,9.6 134,8.5 C134.5,7.2 135.6,6.6 136.9,6.6 C138.3,6.6 139.3,7.3 139.8,8.5 C140.3,9.6 140.6,11.8 140.6,15 L140.6,15 Z M147.3,22.1 C147.8,20.2 148.1,17.7 148.1,14.9 C148.1,12.1 147.8,9.7 147.3,7.7 C146.8,5.8 146.1,4.3 145.1,3.2 C144.1,2.1 143,1.3 141.7,0.8 C140.4,0.3 138.7,0.1 136.9,0.1 C135,0.1 133.4,0.3 132.1,0.8 C130.8,1.3 129.6,2.1 128.7,3.2 C127.7,4.3 127,5.8 126.5,7.7 C126,9.6 125.7,12.1 125.7,14.9 C125.7,17.7 126,20.1 126.5,22.1 C127,24 127.7,25.5 128.7,26.6 C129.7,27.7 130.8,28.5 132.1,29 C133.4,29.5 135.1,29.7 136.9,29.7 C138.8,29.7 140.4,29.5 141.7,29 C143,28.5 144.2,27.7 145.1,26.6 C146.1,25.6 146.8,24 147.3,22.1 L147.3,22.1 Z M173.6,29 C173.7,28.9 173.7,28.6 173.5,28.2 L166.3,13.6 L166.2,13.4 L166.3,13.2 L173.1,1.5 C173.3,1.1 173.3,0.9 173.2,0.7 C173.2,0.6 173.1,0.5 172.7,0.5 L166.8,0.5 C166.1,0.5 165.7,0.8 165.3,1.5 L160.2,10.6 L159.6,11.7 L159.6,10.4 L159.6,1.6 C159.6,0.9 159.3,0.7 158.7,0.7 L153.1,0.7 C152.4,0.7 152.2,1 152.2,1.6 L152.2,28.4 C152.2,29.1 152.5,29.3 153.1,29.3 L158.7,29.3 C159.4,29.3 159.6,29 159.6,28.4 L159.6,16.9 L159.6,15.4 L160.2,16.7 L165.7,28.2 C166,28.9 166.5,29.2 167.2,29.2 L173.1,29.2 C173.5,29.3 173.6,29.1 173.6,29 L173.6,29 Z M194.8,21.4 C194.8,20.2 194.6,19.1 194.3,18.2 C194,17.3 193.5,16.5 192.8,15.9 C192.1,15.2 191.4,14.6 190.7,14.2 C190,13.8 189,13.2 187.8,12.5 C185.1,11.2 183.9,9.9 183.9,8.6 C183.9,7.6 184.4,7.1 184.8,6.9 C185.3,6.6 186.1,6.5 187.1,6.5 C188.7,6.5 190.2,6.7 191.6,7.1 C191.8,7.1 192,7.2 192.1,7.2 C192.4,7.2 192.7,7.1 192.8,6.5 L193.5,2.6 C193.6,2.2 193.5,1.7 192.7,1.4 C190.9,0.7 188.7,0.3 186,0.3 C182.6,0.3 180.1,0.9 178.6,2.2 C177.1,3.4 176.3,5.5 176.3,8.3 C176.3,9.6 176.5,10.8 176.8,11.9 C177.2,12.9 177.7,13.8 178.4,14.5 C179.1,15.2 179.8,15.8 180.5,16.3 C181.2,16.8 182.1,17.2 183.1,17.7 C184.6,18.5 185.6,19.1 186.2,19.6 C186.8,20.1 187.1,20.7 187.1,21.4 C187.1,22.9 185.7,23.7 182.8,23.7 C181.1,23.7 179.4,23.4 177.9,22.8 C177.7,22.7 177.5,22.7 177.3,22.7 C177.1,22.7 176.8,22.7 176.7,23.4 L176,27.4 C175.9,27.9 176,28.1 176,28.1 C176.1,28.2 176.3,28.4 176.8,28.6 C179,29.5 181.6,29.9 184.7,29.9 C187.6,29.9 190,29.2 191.9,27.8 C193.9,26.3 194.8,24.2 194.8,21.4 L194.8,21.4 Z M195,40.8 L195,37.7 C195,37 194.8,36.8 194.1,36.8 L118.4,36.8 C114.8,36.8 110.9,36.9 106.5,37.7 C103,38.4 100,39.8 97.7,41.9 L97.5,42 L97.3,41.8 C95,39.7 92,38.3 88.5,37.6 C84.1,36.8 76.7,36.7 76.6,36.7 L0.9,36.7 C0.3,36.7 0,37 0,37.6 L0,40.7 C0,41.4 0.2,41.6 0.9,41.6 L77.1,41.6 C78.8,41.6 84.5,41.7 87.6,42.4 C92.6,43.6 95.2,47.1 95.7,47.9 L99.3,47.9 C99.8,47.1 102.4,43.6 107.4,42.4 C110.4,41.7 116.1,41.6 118.4,41.6 L194.1,41.6 C194.7,41.7 195,41.4 195,40.8 L195,40.8 Z" id="Shape"></path>
      </g>
    </g>
  </g>
</svg>
